icons/plane-fill.svg

<svg viewBox="0 0 24 24" fill="currentColor" xmlns="http://www.w3.org/2000/svg"><path d="M14 8.94737L22 14V16L14 13.4737V18.8333L17 20.5V22L12.5 21L8 22V20.5L11 18.8333V13.4737L3 16V14L11 8.94737V3.5C11 2.67157 11.6716 2 12.5 2C13.3284 2 14 2.67157 14 3.5V8.94737Z"/></svg>

<svg xmlns="http://www.w3.org/2000/svg" viewBox="0 0 24 24">
    <g>
        <path fill="none" d="M0 0h24v24H0z"/>
        <path d="M14 8.947L22 14v2l-8-2.526v5.36l3 1.666V22l-4.5-1L8 22v-1.5l3-1.667v-5.36L3 16v-2l8-5.053V3.5a1.5 1.5 0 0 1 3 0v5.447z"/>
    </g>
</svg>
